Hatter-kde-dark/actions/16/gnumeric-data-slicer.svg

<?xml version="1.0" encoding="UTF-8"?>
<svg viewBox="0 0 16 16" xmlns="http://www.w3.org/2000/svg">
 <defs id="defs3051">
  <style id="current-color-scheme" type="text/css">.ColorScheme-Text {
        color:#dedede;
      }</style>
 </defs>
 <path class="ColorScheme-Text" d="m2 2v3h3v-3h-3zm4.5 0v3h3v-3h-3zm4.5 0v3h3v-3h-3zm-8 1h1v1h-1v-1zm9 0h1v1h-1v-1zm-10 3.5v3h3v-3h-3zm1 1h1v1h-1v-1zm-1 3.5v3h3v-3h-3z" fill="currentColor"/>
 <path d="m12 6v4 0.5c0 1.385-1.115 2.5-2.5 2.5-0.8187 0-1.5449-0.3955-2-1h1.5v-1h-1.9375-0.0625-0.9375-0.0625v1 2h1v-1.0625c0.6319 0.658 1.5097 1.0625 2.5 1.0625 1.939 0 3.5-1.561 3.5-3.5v-0.5-4h-1z" fill="#1d99f3"/>
</svg>

<svg xmlns="http://www.w3.org/2000/svg" viewBox="0 0 16 16">
  <defs id="defs3051">
    <style type="text/css" id="current-color-scheme">
      .ColorScheme-Text {
        color:#dedede;
      }
      </style>
  </defs>
 <path style="fill:currentColor;fill-opacity:1;stroke:none" 
       d="M 2 2 L 2 5 L 5 5 L 5 2 L 2 2 z M 6.5 2 L 6.5 5 L 9.5 5 L 9.5 2 L 6.5 2 z M 11 2 L 11 5 L 14 5 L 14 2 L 11 2 z M 3 3 L 4 3 L 4 4 L 3 4 L 3 3 z M 12 3 L 13 3 L 13 4 L 12 4 L 12 3 z M 2 6.5 L 2 9.5 L 5 9.5 L 5 6.5 L 2 6.5 z M 3 7.5 L 4 7.5 L 4 8.5 L 3 8.5 L 3 7.5 z M 2 11 L 2 14 L 5 14 L 5 11 L 2 11 z "
     class="ColorScheme-Text"
     />
 <path 
     style="fill:#1d99f3" 
     d="M 12 6 L 12 10 L 12 10.5 C 12 11.885 10.885 13 9.5 13 C 8.6813 13 7.9551 12.6045 7.5 12 L 9 12 L 9 11 L 7.0625 11 L 7 11 L 6.0625 11 L 6 11 L 6 12 L 6 14 L 7 14 L 7 12.9375 C 7.6319 13.5955 8.5097 14 9.5 14 C 11.439 14 13 12.439 13 10.5 L 13 10 L 13 6 L 12 6 z "
     />
</svg>
